X:12603
T:Lollipop Man
T:My Ain Kind Dearie
R:Reel
C:Trad.
O:England, Ducklington, after Scotland
Z:Paul Hardy's Annex Tunebook 2015 (see www.paulhardy.net). Creative Commons cc by-nc-sa licenced.
M:4/4
L:1/8
Q:1/4=120
K:G
BA|"G"GB D2 "D"D2 DE|"G"G2 GF G3 A|B2 GA BAGA|"Em"BEED E2 BA|
"G" GB D2 "D"D2 DE|"G"G2 GF G3 d|"D"edef "C"gedc|"D"BAGF "G"G2:|
|:d2|"D"d4 "Em"gfeg|"Bm"B2 de d3 B|"Am"A3 B cBAG|"Em"BEED E2 BA|
"G" GB D2 "D"D2 DE|"G"G2 GF G3 d|"D"edef "C"gedc|"D"BAGF "G"G2:|

